%
(FILENAME: plate_one_03_6-32_clearance_holes_0p125.nc)
(TOOL/MILL,0.1,0.05,0.000,0)
G20
(STOCK/BLOCK, 9.250, 4.750, 0.190, -0.000, -0.000, 0.190)
(TOOL/MILL,0.1490,0,1.0000,0.0)
M6 T1
G0X0.0000Y0.0000Z0.1000
G0X0.3750Y0.4946
G1Z-0.2000F1.0
G0Z0.1000
G0Y1.5553
G1Z-0.2000F1.0
G0Z0.1000
G0X1.5000Y1.5093
G1Z-0.2000F1.0
G0Z0.1000
G0Y2.5699
G1Z-0.2000F1.0
G0Z0.1000
G0X2.6250Y1.5553
G1Z-0.2000F1.0
G0Z0.1000
G0Y0.4946
G1Z-0.2000F1.0
G0Z0.1000
G0X6.6250Y3.1946
G1Z-0.2000F1.0
G0Z0.1000
G0Y4.2553
G1Z-0.2000F1.0
G0Z0.1000
G0X7.7500Y3.2406
G1Z-0.2000F1.0
G0Z0.1000
G0Y2.1799
G1Z-0.2000F1.0
G0Z0.1000
G0X8.8750Y3.1946
G1Z-0.2000F1.0
G0Z0.1000
G0Y4.2553
G1Z-0.2000F1.0
G0Z0.1000
(G-Code Postamble)
M5 M2
