%
(FILENAME: test.nc)
(TOOL/MILL,0.1,0.05,0.000,0)
G20
(STOCK/BLOCK, 9.250, 4.750, 0.190, -0.000, -0.000, 0.190)
(TOOL/MILL,0.1060,0,1.0000,0.0)
M6 T1
G0X0.0000Y0.0000Z0.1000
G0X4.0625Y1.4006
G1Z-0.2050F1.0
G0Z0.1000
G0X3.1025Y1.8894
G1Z-0.2050F1.0
G0Z0.1000
G0Y3.2644
G1Z-0.2050F1.0
G0Z0.1000
G0X4.0625Y3.3492
G1Z-0.2050F1.0
G0Z0.1000
G0X5.1875
G1Z-0.2050F1.0
G0Z0.1000
G0X6.1475Y2.8604
G1Z-0.2050F1.0
G0Z0.1000
G0Y1.4854
G1Z-0.2050F1.0
G0Z0.1000
G0X5.1875Y1.4006
G1Z-0.2050F1.0
G0Z0.1000
G0X7.7500Y1.0329
G1Z-0.2050F1.0
G0Z0.1000
G0X1.5000Y3.7169
G1Z-0.2050F1.0
G0Z0.1000
(TOOL/MILL,0.0890,0,1.0000,0.0)
M6 T1
G0X3.7260Y0.6399
G1Z-0.2000F1.0
G0Z0.1000
G0X3.4150Y1.4949
G1Z-0.2000F1.0
G0Z0.1000
G0X5.1950Y0.3669
G1Z-0.2000F1.0
G0Z0.1000
G0X6.6050Y1.5349
G1Z-0.2000F1.0
G0Z0.1000
(G-Code Postamble)
M5 M2
