;FLAVOR:RepRap
;TIME:4984
;Filament used: 4.55897m
;Layer height: 0.2
;MINX:-29.848
;MINY:-37.581
;MINZ:0.2
;MAXX:29.848
;MAXY:11.213
;MAXZ:27.2
;Generated with Cura_SteamEngine 4.4.0
T0
M190 S60
M104 S200
M109 S200
M82 ;absolute extrusion mode
G28
G1 Z15.0 F10000
G92 E0
G92 E0
G92 E0
G1 F3000 E-5
;LAYER_COUNT:131
;LAYER:0
M107
G1 F600 Z1.2
G0 F3600 X-0.037 Y11.213 Z1.2
;TYPE:SKIRT
G1 F600 Z0.2
G1 F3000 E0
G1 F1800 X-.727 Y11.201 E0.02869
G1 X-1.186 Y11.179 E0.0478
G1 X-1.863 Y11.127 E0.07603
G1 X-2.302 Y11.081 E0.09438
G1 X-3.001 Y10.987 E0.1237
G1 X-3.423 Y10.918 E0.14148
G1 X-4.098 Y10.789 E0.17005
G1 X-4.533 Y10.693 E0.18857
G1 X-5.205 Y10.524 E0.21738
G1 X-5.653 Y10.397 E0.23674
G1 X-6.304 Y10.191 E0.26512
G1 X-6.684 Y10.06 E0.28184
G1 X-7.341 Y9.814 E0.311
G1 X-7.772 Y9.638 E0.33036
G1 X-8.413 Y9.353 E0.35952
G1 X-8.799 Y9.168 E0.37732
G1 X-9.4 Y8.86 E0.4054
G1 X-9.798 Y8.641 E0.42428
G1 X-10.411 Y8.28 E0.45386
G1 X-10.782 Y8.047 E0.47207
G1 X-11.357 Y7.663 E0.50082
G1 X-11.708 Y7.414 E0.51871
G1 X-12.259 Y7 E0.54737
G1 X-12.617 Y6.715 E0.56639
G1 X-13.137 Y6.274 E0.59474
G1 X-13.454 Y5.989 E0.61246
G1 X-13.967 Y5.503 E0.64184
G1 X-14.249 Y5.222 E0.65839
G1 X-14.461 Y4.999 E0.67118
G1 X-17.205 Y4.992 E0.78526
G1 X-20.417 Y4.992 E0.9188
G1 X-21.268 Y4.945 E0.95424
G1 X-21.766 Y4.89 E0.97507
G1 X-22.543 Y4.764 E1.00779
G1 X-23.303 Y4.56 E1.04051
G1 X-23.952 Y4.317 E1.06932
G1 X-24.377 Y4.136 E1.08853
G1 X-25.084 Y3.791 E1.12123
G1 X-25.753 Y3.377 E1.15394
G1 X-26.324 Y2.941 E1.18381
G1 X-26.68 Y2.642 E1.20314
G1 X-27.257 Y2.105 E1.23591
G1 X-27.776 Y1.513 E1.26864
G1 X-28.2 Y0.922 E1.29888
G1 X-28.456 Y0.527 E1.31845
G1 X-28.85 Y-.154 E1.35116
G1 X-29.172 Y-.872 E1.38388
G1 X-29.392 Y-1.517 E1.41221
G1 X-29.521 Y-1.959 E1.43135
G1 X-29.702 Y-2.725 E1.46408
G1 X-29.806 Y-3.505 E1.49679
G1 X-29.831 Y-4.101 E1.52159
G1 X-29.848 Y-8.698 E1.71271
G1 X-29.848 Y-12.987 E1.89103
G1 X-29.806 Y-13.793 E1.92459
G1 X-29.751 Y-14.319 E1.94657
G1 X-29.629 Y-15.097 E1.97931
G1 X-29.43 Y-15.858 E2.01202
G1 X-29.16 Y-16.58 E2.04406
G1 X-28.976 Y-17.007 E2.06339
G1 X-28.629 Y-17.713 E2.0961
G1 X-28.211 Y-18.38 E2.12883
G1 X-27.799 Y-18.918 E2.157
G1 X-27.504 Y-19.27 E2.17609
G1 X-26.968 Y-19.847 E2.20884
G1 X-26.377 Y-20.366 E2.24154
G1 X-25.783 Y-20.793 E2.27195
G1 X-25.387 Y-21.05 E2.29158
G1 X-24.706 Y-21.444 E2.32429
G1 X-23.988 Y-21.768 E2.35704
G1 X-23.335 Y-21.99 E2.38571
G1 X-22.892 Y-22.119 E2.40489
G1 X-22.126 Y-22.3 E2.43762
G1 X-21.345 Y-22.403 E2.47037
G1 X-20.764 Y-22.428 E2.49455
G1 X-17.223 Y-22.446 E2.64177
G1 X-14.468 Y-22.446 E2.75631
G1 X-14.02 Y-22.904 E2.78294
G1 X-13.717 Y-23.198 E2.8005
G1 X-13.222 Y-23.652 E2.82842
G1 X-12.887 Y-23.942 E2.84684
G1 X-12.341 Y-24.388 E2.87615
G1 X-11.989 Y-24.659 E2.89462
G1 X-11.446 Y-25.053 E2.92251
G1 X-11.107 Y-25.286 E2.93962
G1 X-10.687 Y-25.558 E2.96042
G1 X-10.687 Y-29.024 E3.10452
G1 X-10.647 Y-29.81 E3.13724
G1 X-10.475 Y-30.824 E3.18
G1 X-10.39 Y-31.18 E3.19521
G1 X-10.169 Y-31.935 E3.22792
G1 X-9.872 Y-32.664 E3.26065
G1 X-9.502 Y-33.359 E3.29338
G1 X-8.915 Y-34.208 E3.3363
G1 X-8.7 Y-34.478 E3.35064
G1 X-8.179 Y-35.068 E3.38337
G1 X-7.601 Y-35.602 E3.41609
G1 X-6.971 Y-36.075 E3.44884
G1 X-6.148 Y-36.559 E3.48853
G1 X-5.843 Y-36.714 E3.50276
G1 X-5.124 Y-37.035 E3.53549
G1 X-4.376 Y-37.28 E3.56822
G1 X-3.608 Y-37.449 E3.60091
G1 X-2.445 Y-37.554 E3.64946
G1 X-.656 Y-37.58 E3.72385
G1 X-0.045 Y-37.558 E3.74926
G1 X-0.031 Y-37.56 E3.74985
G1 X0.543 Y-37.581 E3.77373
G1 X2.077 Y-37.581 E3.83751
G1 X2.863 Y-37.541 E3.87023
G1 X3.495 Y-37.45 E3.89678
G1 X3.871 Y-37.38 E3.91268
G1 X4.637 Y-37.197 E3.94542
G1 X5.38 Y-36.937 E3.97815
G1 X6.093 Y-36.603 E4.01088
G1 X6.857 Y-36.138 E4.04806
G1 X7.122 Y-35.955 E4.06145
G1 X7.746 Y-35.476 E4.09416
G1 X8.318 Y-34.935 E4.12689
G1 X8.833 Y-34.339 E4.15964
G1 X9.296 Y-33.676 E4.19326
G1 X9.458 Y-33.416 E4.206
G1 X9.839 Y-32.728 E4.23869
G1 X10.149 Y-32.005 E4.2714
G1 X10.384 Y-31.253 E4.30415
G1 X10.489 Y-30.788 E4.32397
G1 X10.546 Y-30.493 E4.33646
G1 X10.656 Y-29.714 E4.36917
G1 X10.687 Y-29.023 E4.39793
G1 X10.687 Y-25.561 E4.54186
G1 X10.781 Y-25.502 E4.54648
G1 X11.236 Y-25.201 E4.56916
G1 X11.522 Y-25.002 E4.58364
G1 X11.967 Y-24.678 E4.60653
G1 X12.26 Y-24.454 E4.62186
G1 X12.703 Y-24.098 E4.64549
G1 X12.969 Y-23.874 E4.65995
G1 X13.379 Y-23.513 E4.68266
G1 X13.64 Y-23.273 E4.6974
G1 X14.041 Y-22.886 E4.72057
G1 X14.287 Y-22.637 E4.73512
G1 X14.678 Y-22.224 E4.75877
G1 X14.926 Y-21.949 E4.77416
G1 X15.185 Y-21.647 E4.7907
G1 X15.612 Y-21.851 E4.81038
G1 X16.353 Y-22.116 E4.8431
G1 X17.118 Y-22.305 E4.87586
G1 X17.897 Y-22.415 E4.90857
G1 X18.59 Y-22.446 E4.93741
G1 X20.435 Y-22.446 E5.01411
G1 X21.203 Y-22.408 E5.04608
G1 X21.635 Y-22.365 E5.06413
G1 X22.413 Y-22.247 E5.09685
G1 X23.175 Y-22.051 E5.12956
G1 X23.74 Y-21.851 E5.15448
G1 X24.171 Y-21.679 E5.17377
G1 X24.886 Y-21.35 E5.20649
G1 X25.564 Y-20.951 E5.2392
G1 X26.068 Y-20.589 E5.265
G1 X26.433 Y-20.304 E5.28425
G1 X27.028 Y-19.789 E5.31697
G1 X27.567 Y-19.216 E5.34967
G1 X28.061 Y-18.569 E5.38352
G1 X28.333 Y-18.171 E5.40356
G1 X28.744 Y-17.499 E5.43631
G1 X29.084 Y-16.789 E5.46904
G1 X29.322 Y-16.141 E5.49774
G1 X29.466 Y-15.687 E5.51754
G1 X29.666 Y-14.926 E5.55025
G1 X29.787 Y-14.148 E5.58299
G1 X29.829 Y-13.376 E5.61513
G1 X29.848 Y-8.802 E5.8053
G1 X29.848 Y-8.768 E5.80671
G1 X29.847 Y-4.482 E5.9849
G1 X29.813 Y-3.757 E6.01508
G1 X29.763 Y-3.226 E6.03725
G1 X29.649 Y-2.448 E6.06994
G1 X29.457 Y-1.684 E6.10269
G1 X29.205 Y-.983 E6.13366
G1 X29.032 Y-.566 E6.15243
G1 X28.694 Y0.145 E6.18516
G1 X28.286 Y0.817 E6.21785
G1 X27.911 Y1.324 E6.24406
G1 X27.63 Y1.673 E6.26269
G1 X27.105 Y2.261 E6.29547
G1 X26.524 Y2.792 E6.32819
G1 X25.933 Y3.234 E6.35887
G1 X25.538 Y3.501 E6.37869
G1 X24.864 Y3.908 E6.41143
G1 X24.153 Y4.245 E6.44414
G1 X23.595 Y4.45 E6.46886
G1 X23.186 Y4.583 E6.48674
G1 X22.426 Y4.788 E6.51946
G1 X21.649 Y4.915 E6.55219
G1 X20.866 Y4.963 E6.58481
G1 X18.652 Y4.985 E6.67686
G1 X17.866 Y4.952 E6.70957
G1 X17.086 Y4.841 E6.74232
G1 X16.323 Y4.65 E6.77502
G1 X15.582 Y4.384 E6.80776
G1 X15.185 Y4.193 E6.82607
G1 X14.977 Y4.436 E6.83937
G1 X14.499 Y4.96 E6.86886
G1 X14.225 Y5.245 E6.8853
G1 X13.735 Y5.73 E6.91396
G1 X13.375 Y6.064 E6.93438
G1 X12.861 Y6.512 E6.96272
G1 X12.533 Y6.783 E6.98041
G1 X11.989 Y7.207 E7.00909
G1 X11.64 Y7.464 E7.02711
G1 X11.06 Y7.866 E7.05645
G1 X10.669 Y8.12 E7.07583
G1 X10.083 Y8.476 E7.10434
G1 X9.735 Y8.675 E7.121
G1 X9.13 Y9.001 E7.14958
G1 X8.707 Y9.212 E7.16923
G1 X8.069 Y9.507 E7.19845
G1 X7.686 Y9.672 E7.21579
G1 X7.049 Y9.926 E7.2443
G1 X6.623 Y10.082 E7.26316
G1 X5.958 Y10.303 E7.2923
G1 X5.519 Y10.434 E7.31134
G1 X4.862 Y10.61 E7.33962
G1 X4.459 Y10.707 E7.35685
G1 X3.763 Y10.854 E7.38643
G1 X3.329 Y10.932 E7.40476
G1 X2.66 Y11.034 E7.4329
G1 X2.215 Y11.089 E7.45154
G1 X1.521 Y11.154 E7.48052
G1 X1.086 Y11.183 E7.49864
G1 X0.386 Y11.209 E7.52777
G1 X-0.037 Y11.213 E7.54535
G0 F3600 X-0.028 Y10.713
G1 F1800 X-.718 Y10.701 E7.57404
G1 X-1.147 Y10.681 E7.5919
G1 X-1.824 Y10.629 E7.62013
G1 X-2.235 Y10.585 E7.63731
G1 X-2.934 Y10.491 E7.66664
G1 X-3.329 Y10.427 E7.68327
G1 X-4.004 Y10.298 E7.71184
G1 X-4.411 Y10.208 E7.72917
G1 X-5.083 Y10.039 E7.75798
G1 X-5.502 Y9.92 E7.77609
G1 X-6.153 Y9.714 E7.80448
G1 X-6.508 Y9.592 E7.82009
G1 X-7.165 Y9.346 E7.84925
G1 X-7.568 Y9.181 E7.86736
G1 X-8.209 Y8.896 E7.89652
G1 X-8.571 Y8.723 E7.9132
G1 X-9.172 Y8.415 E7.94128
G1 X-9.544 Y8.21 E7.95894
G1 X-10.157 Y7.849 E7.98852
G1 X-10.504 Y7.631 E8.00555
G1 X-11.079 Y7.247 E8.0343
G1 X-11.408 Y7.014 E8.05106
G1 X-11.959 Y6.6 E8.07971
G1 X-12.293 Y6.333 E8.09749
G1 X-12.813 Y5.892 E8.12584
G1 X-13.11 Y5.626 E8.14241
G1 X-13.623 Y5.14 E8.17179
G1 X-13.887 Y4.877 E8.18729
G1 X-14.246 Y4.5 E8.20893
G1 X-17.204 Y4.492 E8.33191
G1 X-20.417 Y4.492 E8.46549
G1 X-21.213 Y4.448 E8.49864
G1 X-21.711 Y4.393 E8.51947
G1 X-22.462 Y4.27 E8.55111
G1 X-23.196 Y4.069 E8.58274
G1 X-23.756 Y3.857 E8.60764
G1 X-24.181 Y3.676 E8.62684
G1 X-24.865 Y3.342 E8.65849
G1 X-25.51 Y2.937 E8.69016
G1 X-26.003 Y2.558 E8.71601
G1 X-26.359 Y2.259 E8.73534
G1 X-26.915 Y1.739 E8.76699
G1 X-27.414 Y1.164 E8.79864
G1 X-27.78 Y0.65 E8.82487
G1 X-28.036 Y0.255 E8.84444
G1 X-28.416 Y-.405 E8.87611
G1 X-28.725 Y-1.101 E8.90777
G1 X-28.912 Y-1.657 E8.93215
G1 X-29.041 Y-2.099 E8.9513
G1 X-29.215 Y-2.84 E8.98294
G1 X-29.311 Y-3.595 E9.01458
G1 X-29.331 Y-4.103 E9.03572
G1 X-29.348 Y-8.7 E9.22684
G1 X-29.348 Y-12.987 E9.40508
G1 X-29.309 Y-13.741 E9.43646
G1 X-29.254 Y-14.267 E9.45845
G1 X-29.135 Y-15.019 E9.49011
G1 X-28.938 Y-15.754 E9.52174
G1 X-28.701 Y-16.382 E9.54965
G1 X-28.517 Y-16.809 E9.56898
G1 X-28.18 Y-17.491 E9.60061
G1 X-27.772 Y-18.135 E9.6323
G1 X-27.416 Y-18.597 E9.65655
G1 X-27.121 Y-18.949 E9.67565
G1 X-26.602 Y-19.506 E9.7073
G1 X-26.027 Y-20.005 E9.73895
G1 X-25.511 Y-20.374 E9.76532
G1 X-25.115 Y-20.631 E9.78495
G1 X-24.455 Y-21.011 E9.81661
G1 X-23.76 Y-21.32 E9.84824
G1 X-23.195 Y-21.51 E9.87302
G1 X-22.752 Y-21.639 E9.8922
G1 X-22.011 Y-21.813 E9.92385
G1 X-21.256 Y-21.909 E9.95549
G1 X-20.762 Y-21.928 E9.97604
G1 X-17.221 Y-21.946 E10.12326
G1 X-14.255 Y-21.946 E10.24657
G1 X-14.147 Y-22.06 E10.2531
G1 X-13.663 Y-22.555 E10.28188
G1 X-13.379 Y-22.829 E10.29829
G1 X-12.884 Y-23.283 E10.32622
G1 X-12.57 Y-23.555 E10.34349
G1 X-12.024 Y-24.001 E10.3728
G1 X-11.696 Y-24.254 E10.39002
G1 X-11.153 Y-24.648 E10.41791
G1 X-10.835 Y-24.866 E10.43394
G1 X-10.248 Y-25.246 E10.46301
G1 X-10.187 Y-25.283 E10.46598
G1 X-10.187 Y-29.024 E10.62151
G1 X-10.147 Y-29.784 E10.65315
G1 X-9.989 Y-30.708 E10.69213
G1 X-9.904 Y-31.064 E10.70734
G1 X-9.688 Y-31.794 E10.73899
G1 X-9.398 Y-32.497 E10.77061
G1 X-9.035 Y-33.167 E10.80229
G1 X-8.524 Y-33.896 E10.8393
G1 X-8.309 Y-34.166 E10.85365
G1 X-7.804 Y-34.736 E10.88531
G1 X-7.242 Y-35.25 E10.91698
G1 X-6.629 Y-35.702 E10.94864
G1 X-5.922 Y-36.113 E10.98264
G1 X-5.617 Y-36.268 E10.99687
G1 X-4.921 Y-36.577 E11.02853
G1 X-4.196 Y-36.811 E11.0602
G1 X-3.451 Y-36.968 E11.09185
G1 X-2.437 Y-37.054 E11.13416
G1 X-.648 Y-37.08 E11.20855
G1 X0.112 Y-37.051 E11.24017
G1 X0.128 Y-37.049 E11.24084
G1 X0.543 Y-37.081 E11.25814
G1 X2.077 Y-37.081 E11.32192
G1 X2.837 Y-37.041 E11.35356
G1 X3.404 Y-36.959 E11.37738
G1 X3.78 Y-36.889 E11.39328
G1 X4.52 Y-36.71 E11.42493
G1 X5.237 Y-36.455 E11.45657
G1 X5.924 Y-36.126 E11.48824
G1 X6.573 Y-35.727 E11.51991
G1 X6.838 Y-35.544 E11.5333
G1 X7.441 Y-35.079 E11.56496
G1 X7.991 Y-34.553 E11.5966
G1 X8.484 Y-33.973 E11.62825
G1 X8.871 Y-33.412 E11.65658
G1 X9.033 Y-33.152 E11.66932
G1 X9.401 Y-32.486 E11.70095
G1 X9.698 Y-31.784 E11.73264
G1 X9.998 Y-30.693 E11.77969
G1 X10.055 Y-30.398 E11.79218
G1 X10.16 Y-29.644 E11.82383
G1 X10.187 Y-29.023 E11.84967
G1 X10.187 Y-25.284 E12.00512
G1 X10.243 Y-25.25 E12.00784
G1 X10.505 Y-25.085 E12.02072
G1 X10.96 Y-24.784 E12.0434
G1 X11.227 Y-24.598 E12.05693
G1 X11.672 Y-24.274 E12.07981
G1 X11.946 Y-24.064 E12.09416
G1 X12.389 Y-23.708 E12.11779
G1 X12.639 Y-23.498 E12.13137
G1 X13.049 Y-23.137 E12.15408
G1 X13.293 Y-22.913 E12.16785
G1 X13.694 Y-22.526 E12.19102
G1 X13.924 Y-22.293 E12.20463
G1 X14.315 Y-21.88 E12.22827
G1 X14.547 Y-21.623 E12.24267
G1 X14.903 Y-21.209 E12.26537
G1 X15.06 Y-21.018 E12.27565
G1 X15.384 Y-21.199 E12.29108
G1 X16.083 Y-21.499 E12.3227
G1 X16.811 Y-21.724 E12.35438
G1 X17.557 Y-21.872 E12.386
G1 X18.59 Y-21.946 E12.42906
G1 X20.435 Y-21.946 E12.50576
G1 X21.153 Y-21.91 E12.53565
G1 X21.585 Y-21.867 E12.5537
G1 X22.338 Y-21.752 E12.58537
G1 X23.074 Y-21.559 E12.61701
G1 X23.554 Y-21.387 E12.6382
G1 X23.985 Y-21.215 E12.6575
G1 X24.676 Y-20.896 E12.68914
G1 X25.331 Y-20.506 E12.72083
G1 X25.76 Y-20.195 E12.74286
G1 X26.125 Y-19.91 E12.76211
G1 X26.7 Y-19.411 E12.79377
G1 X27.219 Y-18.854 E12.82542
G1 X27.649 Y-18.287 E12.855
G1 X27.921 Y-17.889 E12.87505
G1 X28.317 Y-17.238 E12.90673
G1 X28.642 Y-16.55 E12.93836
G1 X28.846 Y-15.99 E12.96314
G1 X28.99 Y-15.536 E12.98294
G1 X29.181 Y-14.799 E13.01459
G1 X29.295 Y-14.046 E13.04626
G1 X29.329 Y-13.374 E13.07423
G1 X29.348 Y-8.8 E13.2644
G1 X29.348 Y-8.768 E13.26573
G1 X29.347 Y-4.482 E13.44392
G1 X29.315 Y-3.804 E13.47214
G1 X29.265 Y-3.273 E13.49431
G1 X29.154 Y-2.52 E13.52596
G1 X28.965 Y-1.783 E13.55759
G1 X28.744 Y-1.175 E13.58449
G1 X28.571 Y-.758 E13.60326
G1 X28.242 Y-0.071 E13.63492
G1 X27.844 Y0.578 E13.66658
G1 X27.521 Y1.011 E13.68903
G1 X27.24 Y1.36 E13.70766
G1 X26.732 Y1.927 E13.73931
G1 X26.168 Y2.438 E13.77095
G1 X25.653 Y2.82 E13.79761
G1 X25.258 Y3.087 E13.81744
G1 X24.606 Y3.479 E13.84906
G1 X23.916 Y3.801 E13.88072
G1 X23.44 Y3.975 E13.90179
G1 X23.031 Y4.108 E13.91967
G1 X22.296 Y4.305 E13.95131
G1 X21.544 Y4.424 E13.98296
G1 X20.861 Y4.463 E14.0114
G1 X18.647 Y4.485 E14.10346
G1 X17.886 Y4.452 E14.13512
G1 X17.133 Y4.34 E14.16678
G1 X16.396 Y4.15 E14.19842
G1 X15.683 Y3.883 E14.23007
G1 X15.053 Y3.569 E14.25934
G1 X14.88 Y3.782 E14.27074
G1 X14.607 Y4.099 E14.28814
G1 X14.129 Y4.623 E14.31763
G1 X13.873 Y4.89 E14.333
G1 X13.383 Y5.375 E14.36167
G1 X13.047 Y5.687 E14.38073
G1 X12.533 Y6.135 E14.40908
G1 X12.226 Y6.388 E14.42562
G1 X11.682 Y6.812 E14.45429
G1 X11.355 Y7.053 E14.47118
G1 X10.775 Y7.455 E14.50052
G1 X10.409 Y7.692 E14.51865
G1 X9.823 Y8.048 E14.54716
G1 X9.498 Y8.234 E14.56272
G1 X8.893 Y8.56 E14.5913
G1 X8.497 Y8.759 E14.60972
G1 X7.859 Y9.054 E14.63894
G1 X7.501 Y9.207 E14.65513
G1 X6.864 Y9.461 E14.68364
G1 X6.465 Y9.607 E14.70131
G1 X5.8 Y9.828 E14.73044
G1 X5.39 Y9.951 E14.74824
G1 X4.733 Y10.127 E14.77651
G1 X4.355 Y10.218 E14.79268
G1 X3.659 Y10.365 E14.82225
G1 X3.254 Y10.438 E14.83936
G1 X2.585 Y10.54 E14.8675
G1 X2.168 Y10.591 E14.88496
G1 X1.474 Y10.656 E14.91394
G1 X1.067 Y10.683 E14.9309
G1 X0.367 Y10.709 E14.96002
G1 X-0.028 Y10.713 E14.97645
G0 F3600 X-0.019 Y10.213
G1 F1800 X-.709 Y10.201 E15.00514
G1 X-1.109 Y10.182 E15.02179
G1 X-1.786 Y10.13 E15.05002
G1 X-2.169 Y10.09 E15.06603
G1 X-2.868 Y9.996 E15.09535
G1 X-3.235 Y9.936 E15.11081
G1 X-3.91 Y9.807 E15.13938
G1 X-4.289 Y9.723 E15.15552
G1 X-4.961 Y9.554 E15.18433
G1 X-5.351 Y9.443 E15.20119
G1 X-6.002 Y9.237 E15.22958
G1 X-6.333 Y9.123 E15.24413
G1 X-6.99 Y8.877 E15.2733
G1 X-7.365 Y8.724 E15.29014
G1 X-8.006 Y8.439 E15.3193
G1 X-8.343 Y8.278 E15.33483
G1 X-8.944 Y7.97 E15.36291
G1 X-9.29 Y7.779 E15.37934
G1 X-9.903 Y7.418 E15.40891
G1 X-10.227 Y7.215 E15.42481
G1 X-10.802 Y6.831 E15.45356
G1 X-11.108 Y6.614 E15.46915
G1 X-11.659 Y6.2 E15.49781
G1 X-11.97 Y5.952 E15.51434
G1 X-12.49 Y5.511 E15.54269
G1 X-12.766 Y5.263 E15.55812
G1 X-13.279 Y4.777 E15.5875
G1 X-13.525 Y4.532 E15.60193
G1 X-14.031 Y4.001 E15.63242
G1 X-17.202 Y3.992 E15.76426
G1 X-20.417 Y3.992 E15.89792
G1 X-21.158 Y3.951 E15.92878
G1 X-21.656 Y3.896 E15.94961
G1 X-22.381 Y3.776 E15.98016
G1 X-23.088 Y3.578 E16.01069
G1 X-23.56 Y3.397 E16.0317
G1 X-23.985 Y3.216 E16.05091
G1 X-24.644 Y2.892 E16.08144
G1 X-25.264 Y2.498 E16.11198
G1 X-25.681 Y2.175 E16.13391
G1 X-26.037 Y1.876 E16.15324
G1 X-26.573 Y1.373 E16.1838
G1 X-27.051 Y0.816 E16.21431
G1 X-27.36 Y0.378 E16.2366
G1 X-27.616 Y-0.017 E16.25617
G1 X-27.982 Y-.654 E16.28671
G1 X-28.276 Y-1.327 E16.31724
G1 X-28.432 Y-1.797 E16.33783
G1 X-28.561 Y-2.239 E16.35698
G1 X-28.728 Y-2.954 E16.3875
G1 X-28.816 Y-3.683 E16.41803
G1 X-28.831 Y-4.105 E16.43559
G1 X-28.848 Y-8.702 E16.62671
G1 X-28.848 Y-12.987 E16.80486
G1 X-28.811 Y-13.689 E16.83408
G1 X-28.756 Y-14.215 E16.85607
G1 X-28.64 Y-14.94 E16.8866
G1 X-28.446 Y-15.649 E16.91716
G1 X-28.242 Y-16.184 E16.94096
