;FLAVOR:RepRap
;TIME:2595
;Filament used: 1.78086m
;Layer height: 0.1
;Generated with Cura_SteamEngine 3.4.1
T0
M190 S60
M104 S210
M109 S210
M82 ;absolute extrusion mode
M203 Z30000
G28 ;Home
G1 Z15.0 F6000 ;Move the platform down 15mm
G92 E0
G1 F200 E3
G92 E0
M83 ;relative extrusion mode
G1 F1500 E-6.5
;LAYER_COUNT:75
;LAYER:0
M107
G0 F3600 X-10.397 Y-12.133 Z0.3
;TYPE:SKIRT
G1 F1500 E6.5
G1 F1800 X15.283 Y-12.121 E1.61994
G1 X16.069 Y-12.081 E0.04965
G1 X16.847 Y-11.961 E0.04966
G1 X17.608 Y-11.763 E0.0496
G1 X18.346 Y-11.488 E0.04968
G1 X18.928 Y-11.208 E0.04074
G1 X19.329 Y-10.994 E0.02867
G1 X20.004 Y-10.589 E0.04966
G1 X20.634 Y-10.117 E0.04966
G1 X21.213 Y-9.584 E0.04964
G1 X21.735 Y-8.995 E0.04965
G1 X22.117 Y-8.473 E0.0408
G1 X22.29 Y-8.215 E0.0196
G1 X22.694 Y-7.54 E0.04962
G1 X23.029 Y-6.827 E0.04969
G1 X23.289 Y-6.084 E0.04966
G1 X23.456 Y-5.399 E0.04448
G1 X23.515 Y-5.1 E0.01923
G1 X23.628 Y-4.321 E0.04965
G1 X23.662 Y-3.628 E0.04377
G1 X23.671 Y-1.003 E0.16559
G1 X27.759 Y-.989 E0.25788
G1 X28.545 Y-.946 E0.04966
G1 X29.322 Y-.824 E0.04961
G1 X30.083 Y-.624 E0.04964
G1 X30.82 Y-.347 E0.04967
G1 X31.388 Y-0.072 E0.03981
G1 X31.659 Y0.073 E0.01939
G1 X32.334 Y0.479 E0.04969
G1 X32.963 Y0.951 E0.04961
G1 X33.542 Y1.485 E0.04969
G1 X34.02 Y2.022 E0.04535
G1 X34.214 Y2.261 E0.01942
G1 X34.679 Y2.896 E0.04965
G1 X35.076 Y3.576 E0.04967
G1 X35.403 Y4.292 E0.04965
G1 X35.622 Y4.923 E0.04213
G1 X35.71 Y5.217 E0.01936
G1 X35.897 Y5.981 E0.04962
G1 X36.005 Y6.761 E0.04967
G1 X36.035 Y7.461 E0.0442
G1 X35.996 Y20.944 E0.85053
G1 X35.954 Y21.73 E0.04965
G1 X35.762 Y22.814 E0.06944
G1 X35.58 Y23.537 E0.04703
G1 X35.349 Y24.289 E0.04963
G1 X34.969 Y25.164 E0.06018
G1 X34.545 Y25.996 E0.05891
G1 X34.152 Y26.678 E0.04965
G1 X33.693 Y27.317 E0.04963
G1 X33.367 Y27.699 E0.03168
G1 X32.612 Y28.527 E0.07069
G1 X32.052 Y29.081 E0.04969
G1 X31.44 Y29.575 E0.04961
G1 X30.68 Y30.062 E0.05694
G1 X29.544 Y30.7 E0.08219
G1 X28.839 Y31.05 E0.04965
G1 X27.808 Y31.414 E0.06897
G1 X27.271 Y31.562 E0.03514
G1 X26.503 Y31.733 E0.04963
G1 X25.948 Y31.806 E0.03531
G1 X25.204 Y31.877 E0.04715
G1 X24.418 Y31.912 E0.04963
G1 X23.49 Y31.85 E0.05867
G1 X22.562 Y31.732 E0.05901
G1 X21.788 Y31.593 E0.04961
G1 X20.731 Y31.267 E0.06978
G1 X19.862 Y30.929 E0.05882
G1 X19.143 Y30.607 E0.0497
G1 X18.185 Y30.026 E0.07068
G1 X17.427 Y29.488 E0.05864
G1 X16.809 Y29 E0.04967
G1 X16.031 Y28.214 E0.06976
G1 X15.421 Y27.503 E0.0591
G1 X14.94 Y26.881 E0.0496
G1 X14.546 Y26.253 E0.04677
G1 X14.273 Y25.767 E0.03516
G1 X13.923 Y25.062 E0.04965
G1 X13.876 Y24.942 E0.00813
G1 X0.143 Y24.936 E0.8663
G1 X0.063 Y25.123 E0.01283
G1 X-.357 Y25.956 E0.05885
G1 X-.746 Y26.64 E0.04964
G1 X-1.406 Y27.526 E0.06969
G1 X-2.017 Y28.235 E0.05904
G1 X-2.561 Y28.805 E0.0497
G1 X-3.278 Y29.406 E0.05902
G1 X-3.878 Y29.85 E0.04709
G1 X-4.534 Y30.285 E0.04965
G1 X-5.348 Y30.705 E0.05778
G1 X-6.201 Y31.083 E0.05886
G1 X-6.936 Y31.365 E0.04966
G1 X-7.835 Y31.6 E0.05862
G1 X-8.567 Y31.745 E0.04707
G1 X-9.346 Y31.859 E0.04966
G1 X-10.256 Y31.891 E0.05744
G1 X-11.187 Y31.869 E0.05875
G1 X-11.972 Y31.81 E0.04966
G1 X-12.889 Y31.638 E0.05885
G1 X-13.615 Y31.456 E0.04721
G1 X-14.367 Y31.226 E0.04961
G1 X-15.213 Y30.862 E0.0581
G1 X-16.044 Y30.444 E0.05868
G1 X-16.728 Y30.055 E0.04964
G1 X-17.478 Y29.512 E0.05841
G1 X-18.058 Y29.036 E0.04733
G1 X-18.64 Y28.506 E0.04966
G1 X-19.134 Y27.959 E0.04649
G1 X-19.608 Y27.381 E0.04715
G1 X-20.075 Y26.748 E0.04962
G1 X-20.451 Y26.118 E0.04628
G1 X-20.803 Y25.459 E0.04713
G1 X-21.056 Y24.921 E0.0375
G1 X-27.67 Y24.911 E0.41722
G1 X-28.456 Y24.87 E0.04965
G1 X-29.234 Y24.749 E0.04967
G1 X-29.995 Y24.55 E0.04962
G1 X-30.644 Y24.313 E0.04358
G1 X-30.929 Y24.194 E0.01948
G1 X-31.639 Y23.854 E0.04966
G1 X-32.311 Y23.444 E0.04966
G1 X-32.938 Y22.968 E0.04966
G1 X-33.436 Y22.509 E0.04272
G1 X-33.651 Y22.293 E0.01922
G1 X-34.177 Y21.708 E0.04963
G1 X-34.641 Y21.072 E0.04966
G1 X-35.038 Y20.393 E0.04962
G1 X-35.467 Y19.404 E0.068
G1 X-35.594 Y19.044 E0.02408
G1 X-35.817 Y18.29 E0.0496
G1 X-35.964 Y17.516 E0.0497
G1 X-36.035 Y16.459 E0.06683
G1 X-36.003 Y-16.629 E2.08725
G1 X-35.962 Y-17.416 E0.04971
G1 X-35.842 Y-18.193 E0.0496
G1 X-35.643 Y-18.955 E0.04968
G1 X-35.369 Y-19.693 E0.04966
G1 X-35.076 Y-20.298 E0.0424
G1 X-34.93 Y-20.569 E0.01942
G1 X-34.522 Y-21.242 E0.04965
G1 X-34.048 Y-21.87 E0.04963
G1 X-33.512 Y-22.447 E0.04968
G1 X-33.246 Y-22.683 E0.02243
G1 X-33.222 Y-22.814 E0.0084
G1 X-33.04 Y-23.537 E0.04703
G1 X-32.809 Y-24.289 E0.04963
G1 X-32.429 Y-25.164 E0.06018
G1 X-32.005 Y-25.996 E0.05891
G1 X-31.612 Y-26.678 E0.04965
G1 X-31.153 Y-27.317 E0.04963
G1 X-30.827 Y-27.699 E0.03168
G1 X-30.072 Y-28.527 E0.07069
G1 X-29.512 Y-29.081 E0.04969
G1 X-28.9 Y-29.575 E0.04961
G1 X-28.14 Y-30.062 E0.05694
G1 X-27.004 Y-30.7 E0.08219
G1 X-26.299 Y-31.05 E0.04965
G1 X-25.268 Y-31.414 E0.06897
G1 X-24.731 Y-31.562 E0.03514
G1 X-23.963 Y-31.733 E0.04963
G1 X-23.407 Y-31.806 E0.03537
G1 X-22.662 Y-31.877 E0.04721
G1 X-21.876 Y-31.912 E0.04963
G1 X-20.949 Y-31.85 E0.05861
G1 X-20.021 Y-31.732 E0.05901
G1 X-19.247 Y-31.593 E0.04961
G1 X-18.187 Y-31.266 E0.06998
G1 X-17.319 Y-30.928 E0.05876
G1 X-16.601 Y-30.605 E0.04966
G1 X-15.645 Y-30.026 E0.0705
G1 X-14.887 Y-29.488 E0.05864
G1 X-14.269 Y-29 E0.04967
G1 X-13.494 Y-28.218 E0.06945
G1 X-12.885 Y-27.509 E0.05896
G1 X-12.403 Y-26.886 E0.04969
G1 X-11.827 Y-25.915 E0.07122
G1 X-11.41 Y-25.078 E0.05899
G1 X-11.095 Y-24.356 E0.04969
G1 X-10.821 Y-23.472 E0.05838
G1 X-10.643 Y-22.748 E0.04703
G1 X-10.494 Y-21.975 E0.04966
G1 X-10.419 Y-20.918 E0.06684
G1 X-10.397 Y-12.133 E0.55417
G0 F3600 X-10.895 Y-11.633
G1 F1800 X15.282 Y-11.621 E1.65129
G1 X16.043 Y-11.581 E0.04807
G1 X16.794 Y-11.461 E0.04798
G1 X17.53 Y-11.263 E0.04808
G1 X18.24 Y-10.989 E0.04801
G1 X18.692 Y-10.767 E0.03177
G1 X19.093 Y-10.553 E0.02867
G1 X19.745 Y-10.16 E0.04802
G1 X20.352 Y-9.701 E0.04801
G1 X20.908 Y-9.18 E0.04807
G1 X21.406 Y-8.604 E0.04803
G1 X21.702 Y-8.195 E0.03185
G1 X21.875 Y-7.937 E0.0196
G1 X22.265 Y-7.283 E0.04803
G1 X22.584 Y-6.592 E0.04801
G1 X22.83 Y-5.871 E0.04806
G1 X22.966 Y-5.303 E0.03684
G1 X23.025 Y-5.004 E0.01923
G1 X23.133 Y-4.25 E0.04805
G1 X23.162 Y-3.626 E0.03941
G1 X23.173 Y-.505 E0.19688
G1 X27.757 Y-.489 E0.28917
G1 X28.517 Y-.446 E0.04802
G1 X29.268 Y-.324 E0.048
G1 X30.003 Y-.124 E0.04805
G1 X30.712 Y0.152 E0.04799
G1 X31.152 Y0.369 E0.03095
G1 X31.423 Y0.514 E0.01939
G1 X32.075 Y0.907 E0.04802
G1 X32.681 Y1.367 E0.04799
G1 X33.236 Y1.889 E0.04806
G1 X33.632 Y2.337 E0.03772
G1 X33.826 Y2.576 E0.01942
G1 X34.274 Y3.191 E0.048
G1 X34.655 Y3.85 E0.04802
G1 X34.965 Y4.546 E0.04806
G1 X35.143 Y5.066 E0.03467
G1 X35.231 Y5.36 E0.01936
G1 X35.41 Y6.1 E0.04803
G1 X35.511 Y6.854 E0.04799
G1 X35.535 Y7.46 E0.03826
G1 X35.496 Y20.943 E0.85053
G1 X35.454 Y21.703 E0.04802
G1 X35.277 Y22.692 E0.06338
G1 X35.095 Y23.415 E0.04703
G1 X34.87 Y24.142 E0.04801
G1 X34.524 Y24.937 E0.05469
G1 X34.1 Y25.769 E0.05891
G1 X33.719 Y26.428 E0.04802
G1 X33.271 Y27.044 E0.04805
G1 X32.997 Y27.362 E0.02648
G1 X32.242 Y28.19 E0.07069
G1 X31.7 Y28.725 E0.04804
G1 X31.106 Y29.2 E0.04798
G1 X30.435 Y29.626 E0.05014
G1 X29.299 Y30.264 E0.08219
G1 X28.617 Y30.602 E0.04802
G1 X27.675 Y30.932 E0.06296
G1 X27.138 Y31.08 E0.03514
G1 X26.395 Y31.244 E0.048
G1 X25.901 Y31.308 E0.03142
G1 X25.157 Y31.379 E0.04715
G1 X24.396 Y31.412 E0.04805
G1 X23.553 Y31.354 E0.0533
G1 X22.625 Y31.236 E0.05901
G1 X21.876 Y31.101 E0.04801
G1 X20.912 Y30.801 E0.06369
G1 X20.043 Y30.463 E0.05882
G1 X19.349 Y30.15 E0.04803
G1 X18.475 Y29.618 E0.06454
G1 X17.717 Y29.08 E0.05864
G1 X17.12 Y28.608 E0.04801
G1 X16.411 Y27.889 E0.0637
G1 X15.801 Y27.178 E0.0591
G1 X15.336 Y26.575 E0.04803
G1 X14.982 Y26.008 E0.04217
G1 X14.709 Y25.522 E0.03516
G1 X14.372 Y24.839 E0.04804
G1 X14.216 Y24.442 E0.02691
G1 X-.183 Y24.436 E0.90831
G1 X-.383 Y24.898 E0.03176
G1 X-.803 Y25.731 E0.05885
G1 X-1.181 Y26.392 E0.04803
G1 X-1.785 Y27.2 E0.06364
G1 X-2.396 Y27.909 E0.05904
G1 X-2.923 Y28.459 E0.04805
G1 X-3.575 Y29.004 E0.05361
G1 X-4.175 Y29.448 E0.04709
G1 X-4.81 Y29.868 E0.04803
G1 X-5.551 Y30.248 E0.05253
G1 X-6.404 Y30.626 E0.05886
G1 X-7.115 Y30.898 E0.04802
G1 X-7.932 Y31.11 E0.05324
G1 X-8.664 Y31.255 E0.04707
G1 X-9.418 Y31.363 E0.04805
G1 X-10.244 Y31.391 E0.05214
G1 X-11.175 Y31.369 E0.05875
G1 X-11.934 Y31.311 E0.04802
G1 X-12.767 Y31.153 E0.05348
G1 X-13.493 Y30.971 E0.04721
G1 X-14.221 Y30.748 E0.04803
G1 X-14.988 Y30.416 E0.05272
G1 X-15.819 Y29.998 E0.05868
G1 X-16.48 Y29.62 E0.04803
G1 X-17.16 Y29.125 E0.05306
G1 X-17.74 Y28.649 E0.04733
G1 X-18.303 Y28.136 E0.04805
G1 X-18.747 Y27.642 E0.0419
G1 X-19.221 Y27.064 E0.04715
G1 X-19.672 Y26.451 E0.04801
G1 X-20.01 Y25.883 E0.04169
G1 X-20.362 Y25.224 E0.04713
G1 X-20.685 Y24.534 E0.04806
G1 X-20.723 Y24.422 E0.00746
G1 X-27.669 Y24.411 E0.43817
G1 X-28.429 Y24.37 E0.04801
G1 X-29.181 Y24.249 E0.04805
G1 X-29.916 Y24.05 E0.04803
G1 X-30.451 Y23.851 E0.03601
G1 X-30.736 Y23.732 E0.01948
G1 X-31.423 Y23.402 E0.04808
G1 X-32.07 Y23.002 E0.04798
G1 X-32.673 Y22.537 E0.04803
G1 X-33.081 Y22.157 E0.03517
G1 X-33.296 Y21.941 E0.01922
G1 X-33.804 Y21.374 E0.04802
G1 X-34.25 Y20.756 E0.04808
G1 X-34.629 Y20.096 E0.04801
G1 X-34.995 Y19.238 E0.05884
G1 X-35.122 Y18.878 E0.02408
G1 X-35.337 Y18.148 E0.04801
G1 X-35.475 Y17.399 E0.04804
G1 X-35.535 Y16.459 E0.05942
G1 X-35.503 Y-16.629 E2.08725
G1 X-35.462 Y-17.389 E0.04801
G1 X-35.342 Y-18.141 E0.04804
G1 X-35.144 Y-18.876 E0.04802
G1 X-34.869 Y-19.586 E0.04803
G1 X-34.636 Y-20.061 E0.03337
G1 X-34.49 Y-20.332 E0.01942
G1 X-34.094 Y-20.982 E0.04801
G1 X-33.632 Y-21.587 E0.04802
G1 X-33.109 Y-22.141 E0.04806
G1 X-32.787 Y-22.424 E0.02704
G1 X-32.737 Y-22.692 E0.0172
G1 X-32.555 Y-23.415 E0.04703
G1 X-32.33 Y-24.142 E0.04801
G1 X-31.984 Y-24.937 E0.05469
G1 X-31.56 Y-25.769 E0.05891
G1 X-31.179 Y-26.428 E0.04802
G1 X-30.731 Y-27.044 E0.04805
G1 X-30.457 Y-27.362 E0.02648
G1 X-29.702 Y-28.19 E0.07069
G1 X-29.16 Y-28.725 E0.04804
G1 X-28.566 Y-29.2 E0.04798
G1 X-27.895 Y-29.626 E0.05014
G1 X-26.759 Y-30.264 E0.08219
G1 X-26.077 Y-30.602 E0.04802
G1 X-25.135 Y-30.932 E0.06296
G1 X-24.598 Y-31.08 E0.03514
G1 X-23.855 Y-31.244 E0.048
G1 X-23.36 Y-31.308 E0.03149
G1 X-22.615 Y-31.379 E0.04721
G1 X-21.854 Y-31.412 E0.04805
G1 X-21.012 Y-31.354 E0.05324
G1 X-20.084 Y-31.236 E0.05901
G1 X-19.335 Y-31.101 E0.04801
G1 X-18.368 Y-30.8 E0.06389
G1 X-17.5 Y-30.462 E0.05876
G1 X-16.806 Y-30.149 E0.04803
G1 X-15.935 Y-29.618 E0.06435
G1 X-15.177 Y-29.08 E0.05864
G1 X-14.58 Y-28.608 E0.04801
G1 X-13.873 Y-27.892 E0.06347
G1 X-13.264 Y-27.183 E0.05896
G1 X-12.799 Y-26.58 E0.04803
G1 X-12.275 Y-25.692 E0.06504
G1 X-11.858 Y-24.855 E0.05899
G1 X-11.555 Y-24.157 E0.048
G1 X-11.307 Y-23.353 E0.05308
G1 X-11.129 Y-22.629 E0.04703
G1 X-10.986 Y-21.881 E0.04804
G1 X-10.919 Y-20.916 E0.06102
G1 X-10.895 Y-11.633 E0.58559
G0 F3600 X-11.394 Y-11.133
G1 F1800 X15.282 Y-11.121 E1.68277
G1 X16.016 Y-11.081 E0.04637
G1 X16.74 Y-10.961 E0.04629
G1 X17.448 Y-10.763 E0.04638
G1 X18.457 Y-10.326 E0.06936
G1 X18.858 Y-10.112 E0.02867
G1 X19.486 Y-9.731 E0.04634
G1 X20.07 Y-9.285 E0.04635
G1 X20.601 Y-8.777 E0.04636
G1 X21.286 Y-7.916 E0.06941
G1 X21.459 Y-7.658 E0.0196
G1 X21.835 Y-7.027 E0.04634
G1 X22.139 Y-6.358 E0.04635
G1 X22.369 Y-5.661 E0.0463
G1 X22.475 Y-5.206 E0.02947
G1 X22.534 Y-4.907 E0.01923
G1 X22.637 Y-4.179 E0.04638
G1 X22.662 Y-3.624 E0.03505
G1 X22.675 Y-0.006 E0.22823
G1 X27.755 Y0.011 E0.32046
G1 X28.488 Y0.054 E0.04632
G1 X29.213 Y0.175 E0.04637
G1 X29.92 Y0.375 E0.04635
G1 X30.916 Y0.809 E0.06853
G1 X31.187 Y0.954 E0.01939
G1 X31.815 Y1.336 E0.04637
G1 X32.398 Y1.783 E0.04634
G1 X32.929 Y2.291 E0.04636
G1 X33.244 Y2.652 E0.03022
G1 X33.438 Y2.891 E0.01942
G1 X33.869 Y3.486 E0.04635
G1 X34.233 Y4.124 E0.04634
G1 X34.526 Y4.797 E0.0463
G1 X34.664 Y5.209 E0.02741
G1 X34.752 Y5.503 E0.01936
G1 X34.924 Y6.218 E0.04639
G1 X35.017 Y6.946 E0.0463
G1 X35.035 Y7.459 E0.03238
G1 X34.996 Y20.942 E0.85053
G1 X34.954 Y21.675 E0.04631
G1 X34.792 Y22.57 E0.05738
G1 X34.61 Y23.293 E0.04703
G1 X34.392 Y23.994 E0.04631
G1 X34.078 Y24.71 E0.04932
G1 X33.654 Y25.542 E0.05891
G1 X33.285 Y26.177 E0.04633
G1 X32.628 Y27.025 E0.06767
G1 X31.873 Y27.853 E0.07069
G1 X31.349 Y28.368 E0.04635
G1 X30.772 Y28.823 E0.04635
G1 X30.19 Y29.19 E0.0434
G1 X29.054 Y29.828 E0.08219
G1 X28.395 Y30.153 E0.04635
G1 X27.542 Y30.45 E0.05698
G1 X27.005 Y30.598 E0.03514
G1 X26.288 Y30.755 E0.0463
G1 X25.853 Y30.81 E0.02766
G1 X25.109 Y30.881 E0.04715
G1 X24.375 Y30.911 E0.04634
G1 X23.617 Y30.858 E0.04793
G1 X22.689 Y30.74 E0.05901
G1 X21.966 Y30.608 E0.04636
G1 X21.093 Y30.335 E0.0577
G1 X20.224 Y29.997 E0.05882
G1 X19.555 Y29.694 E0.04633
G1 X18.764 Y29.21 E0.0585
G1 X18.006 Y28.672 E0.05864
G1 X17.431 Y28.215 E0.04633
G1 X16.79 Y27.563 E0.05768
G1 X16.18 Y26.852 E0.0591
G1 X15.733 Y26.27 E0.04629
G1 X15.418 Y25.763 E0.03765
G1 X15.145 Y25.277 E0.03516
G1 X14.821 Y24.618 E0.04632
G1 X14.666 Y24.222 E0.02683
G1 X14.567 Y23.942 E0.01873
G1 X-.513 Y23.936 E0.95127
G1 X-.522 Y23.965 E0.00192
G1 X-.83 Y24.673 E0.0487
G1 X-1.25 Y25.506 E0.05885
G1 X-1.616 Y26.143 E0.04634
G1 X-2.164 Y26.873 E0.05758
G1 X-2.775 Y27.582 E0.05904
G1 X-3.284 Y28.112 E0.04635
G1 X-3.873 Y28.602 E0.04833
G1 X-4.473 Y29.046 E0.04709
G1 X-5.086 Y29.45 E0.04631
G1 X-5.753 Y29.791 E0.04726
G1 X-6.606 Y30.169 E0.05886
G1 X-7.293 Y30.43 E0.04636
G1 X-8.029 Y30.619 E0.04793
G1 X-8.761 Y30.764 E0.04707
G1 X-9.489 Y30.868 E0.04639
G1 X-10.232 Y30.891 E0.04689
G1 X-11.163 Y30.869 E0.05875
G1 X-11.896 Y30.812 E0.04638
G1 X-12.645 Y30.668 E0.04811
G1 X-13.371 Y30.486 E0.04721
G1 X-14.073 Y30.269 E0.04635
G1 X-14.763 Y29.969 E0.04746
G1 X-15.594 Y29.551 E0.05868
G1 X-16.231 Y29.186 E0.04631
G1 X-16.843 Y28.739 E0.04781
G1 X-17.423 Y28.263 E0.04733
G1 X-17.965 Y27.767 E0.04635
G1 X-18.36 Y27.325 E0.03739
G1 X-18.834 Y26.747 E0.04715
G1 X-19.269 Y26.155 E0.04634
G1 X-19.569 Y25.647 E0.03722
G1 X-19.921 Y24.988 E0.04713
G1 X-20.231 Y24.322 E0.04634
G1 X-20.366 Y23.922 E0.02663
G1 X-27.668 Y23.911 E0.46062
G1 X-28.402 Y23.87 E0.04637
G1 X-29.126 Y23.749 E0.0463
G1 X-29.833 Y23.551 E0.04631
G1 X-30.259 Y23.39 E0.02873
G1 X-30.544 Y23.271 E0.01948
G1 X-31.205 Y22.951 E0.04633
G1 X-31.828 Y22.562 E0.04633
G1 X-32.405 Y22.107 E0.04635
G1 X-32.727 Y21.804 E0.02789
G1 X-32.942 Y21.588 E0.01922
G1 X-33.431 Y21.04 E0.04633
G1 X-33.858 Y20.442 E0.04635
G1 X-34.217 Y19.801 E0.04635
G1 X-34.524 Y19.072 E0.0499
G1 X-34.651 Y18.712 E0.02408
G1 X-34.857 Y18.007 E0.04633
G1 X-34.985 Y17.283 E0.04638
G1 X-35.035 Y16.459 E0.05207
G1 X-35.003 Y-16.629 E2.08725
G1 X-34.962 Y-17.362 E0.04631
G1 X-34.842 Y-18.087 E0.04636
G1 X-34.644 Y-18.794 E0.04631
G1 X-34.37 Y-19.476 E0.04636
G1 X-34.195 Y-19.823 E0.02452
G1 X-34.049 Y-20.094 E0.01942
G1 X-33.666 Y-20.721 E0.04635
G1 X-33.217 Y-21.303 E0.04637
G1 X-32.708 Y-21.832 E0.04631
G1 X-32.359 Y-22.136 E0.0292
G1 X-32.33 Y-22.16 E0.00237
G1 X-32.252 Y-22.57 E0.02633
G1 X-32.07 Y-23.293 E0.04703
G1 X-31.852 Y-23.994 E0.04631
G1 X-31.538 Y-24.71 E0.04932
G1 X-31.114 Y-25.542 E0.05891
G1 X-30.745 Y-26.177 E0.04633
G1 X-30.088 Y-27.025 E0.06767
G1 X-29.333 Y-27.853 E0.07069
G1 X-28.809 Y-28.368 E0.04635
G1 X-28.232 Y-28.823 E0.04635
G1 X-27.65 Y-29.19 E0.0434
G1 X-26.514 Y-29.828 E0.08219
G1 X-25.855 Y-30.153 E0.04635
G1 X-25.002 Y-30.45 E0.05698
G1 X-24.465 Y-30.598 E0.03514
G1 X-23.748 Y-30.755 E0.0463
G1 X-23.312 Y-30.811 E0.02773
G1 X-22.567 Y-30.882 E0.04721
G1 X-21.833 Y-30.911 E0.04634
